X: 8
T: The Blarney Pilgrim
R: jig
M: 6/8
L: 1/8
K: Dmix
|:DED DEG| A2G ABc| BAG AGE| GEA GED|
DED DEG|A2G ABc|BAG AGE| GED D3:|
ded dBG|AGA BGE| ded dBG|AGA GBd|
g2e dBG|AEA BGE|B2G AGE| GAG G3:|
ADD BDD| A2E ABc|BAG AGE|GEA GED|
ADD BDD|A2E ABc|BAG AGE|GED D3:|


Tune 5	Setting 25996

